src/assets/Twitter.svg

<svg width="21" height="17" viewBox="0 0 21 17" fill="none" xmlns="http://www.w3.org/2000/svg">
<path fill-rule="evenodd" clip-rule="evenodd" d="M20.8672 2.639C20.1297 2.95983 19.3414 3.1765 18.5108 3.2765C19.3584 2.7765 20.0111 1.98483 20.3162 1.04316C19.5237 1.50566 18.6464 1.84316 17.7097 2.02233C16.9596 1.23483 15.8916 0.743164 14.7133 0.743164C12.4459 0.743164 10.6108 2.5515 10.6108 4.78066C10.6108 5.09733 10.6447 5.40566 10.7167 5.7015C7.30499 5.53483 4.27893 3.9265 2.25731 1.48066C1.90554 2.0765 1.70211 2.77233 1.70211 3.50983C1.70211 4.90983 2.43108 6.14733 3.53301 6.87233C2.8549 6.85566 2.21917 6.67233 1.6682 6.36816C1.6682 6.38483 1.6682 6.4015 1.6682 6.41816C1.6682 8.3765 3.08376 10.0057 4.96128 10.3765C4.61798 10.4682 4.2535 10.5182 3.88054 10.5182C3.61777 10.5182 3.35924 10.4932 3.10919 10.4432C3.63048 12.0473 5.14776 13.214 6.94475 13.2473C5.54191 14.3307 3.77034 14.9765 1.84621 14.9765C1.51563 14.9765 1.18929 14.9557 0.867188 14.9182C2.67689 16.0765 4.83413 16.7432 7.14818 16.7432C14.7049 16.7432 18.8329 10.589 18.8329 5.2515C18.8329 5.0765 18.8286 4.9015 18.8201 4.73066C19.6212 4.15983 20.3162 3.4515 20.8672 2.639Z" fill="#2196F3"/>
</svg>

<svg width="21" height="17" fill="none" xmlns="http://www.w3.org/2000/svg"><path fill-rule="evenodd" clip-rule="evenodd" d="M20.867 2.639a8.408 8.408 0 0 1-2.356.638c.847-.5 1.5-1.292 1.805-2.234-.792.463-1.67.8-2.606.98a4.13 4.13 0 0 0-2.997-1.28c-2.267 0-4.102 1.808-4.102 4.038 0 .316.034.625.106.92a11.695 11.695 0 0 1-8.46-4.22 3.986 3.986 0 0 0-.555 2.029c0 1.4.73 2.637 1.831 3.362a4.06 4.06 0 0 1-1.865-.504v.05c0 1.958 1.416 3.588 3.293 3.958a4.196 4.196 0 0 1-1.08.142c-.263 0-.522-.025-.772-.075.521 1.604 2.039 2.771 3.836 2.804a8.316 8.316 0 0 1-6.078 1.671 11.612 11.612 0 0 0 6.281 1.825c7.557 0 11.685-6.154 11.685-11.491 0-.175-.004-.35-.013-.521a8.275 8.275 0 0 0 2.047-2.092z" fill="#2196F3"/></svg>
